X:34
T: DIE ROSEN UND DIE NELKEN
N: E0647
O: Europa, Mitteleuropa, Deutschland, Hessen, Kreis Wetzlar, Burgsolms
R: Liebes - Lied
M: 6/8
L: 1/8
K: G
D | G2GF2G | A2dd2
d | c2cB2d | A4z
A | A2ce2d | c2BB2
B | A2Ad2c | B4z
B | E2AG2F | G4z

